images/image.svg

<svg height="24" width="24" xmlns="http://www.w3.org/2000/svg">
  <path d="M8.5 13.5l2.5 3 3.5-4.5 4.5 6H5m16 1V5a2 2 0 00-2-2H5a2 2 0 00-2 2v14a2 2 0 002 2h14a2 2 0 002-2z"/>
</svg>

<?xml version="1.0" encoding="UTF-8"?><!DOCTYPE svg PUBLIC "-//W3C//DTD SVG 1.1//EN" "http://www.w3.org/Graphics/SVG/1.1/DTD/svg11.dtd"><svg xmlns="http://www.w3.org/2000/svg" xmlns:xlink="http://www.w3.org/1999/xlink" version="1.1" width="24" height="24" viewBox="0 0 24 24"><path d="M8.5,13.5L11,16.5L14.5,12L19,18H5M21,19V5C21,3.89 20.1,3 19,3H5A2,2 0 0,0 3,5V19A2,2 0 0,0 5,21H19A2,2 0 0,0 21,19Z" /></svg>
